images/3234790.svg

<?xml version="1.0" encoding="UTF-8"?>
<svg xmlns="http://www.w3.org/2000/svg" xmlns:xlink="http://www.w3.org/1999/xlink" width="300pt" height="300pt" viewBox="0 0 300 300" version="1.1">
<defs>
<g>
<symbol overflow="visible" id="glyph0-0">
<path style="stroke:none;" d="M 0.546875 1.9375 L 0.546875 -7.75 L 6.046875 -7.75 L 6.046875 1.9375 Z M 1.171875 1.328125 L 5.4375 1.328125 L 5.4375 -7.140625 L 1.171875 -7.140625 Z M 1.171875 1.328125 "/>
</symbol>
<symbol overflow="visible" id="glyph0-1">
<path style="stroke:none;" d="M 4.328125 -7.28125 C 3.546875 -7.28125 2.921875 -6.984375 2.453125 -6.390625 C 1.992188 -5.804688 1.765625 -5.007812 1.765625 -4 C 1.765625 -2.988281 1.992188 -2.1875 2.453125 -1.59375 C 2.921875 -1.007812 3.546875 -0.71875 4.328125 -0.71875 C 5.117188 -0.71875 5.742188 -1.007812 6.203125 -1.59375 C 6.660156 -2.1875 6.890625 -2.988281 6.890625 -4 C 6.890625 -5.007812 6.660156 -5.804688 6.203125 -6.390625 C 5.742188 -6.984375 5.117188 -7.28125 4.328125 -7.28125 Z M 4.328125 -8.171875 C 5.453125 -8.171875 6.351562 -7.789062 7.03125 -7.03125 C 7.707031 -6.28125 8.046875 -5.269531 8.046875 -4 C 8.046875 -2.738281 7.707031 -1.726562 7.03125 -0.96875 C 6.351562 -0.21875 5.453125 0.15625 4.328125 0.15625 C 3.203125 0.15625 2.300781 -0.21875 1.625 -0.96875 C 0.957031 -1.71875 0.625 -2.726562 0.625 -4 C 0.625 -5.269531 0.957031 -6.28125 1.625 -7.03125 C 2.300781 -7.789062 3.203125 -8.171875 4.328125 -8.171875 Z M 4.328125 -8.171875 "/>
</symbol>
<symbol overflow="visible" id="glyph0-2">
<path style="stroke:none;" d="M 1.078125 -8.015625 L 2.546875 -8.015625 L 6.09375 -1.3125 L 6.09375 -8.015625 L 7.15625 -8.015625 L 7.15625 0 L 5.6875 0 L 2.125 -6.703125 L 2.125 0 L 1.078125 0 Z M 1.078125 -8.015625 "/>
</symbol>
<symbol overflow="visible" id="glyph0-3">
<path style="stroke:none;" d="M 1.078125 -8.015625 L 5.6875 -8.015625 L 5.6875 -7.109375 L 2.171875 -7.109375 L 2.171875 -4.75 L 5.34375 -4.75 L 5.34375 -3.828125 L 2.171875 -3.828125 L 2.171875 0 L 1.078125 0 Z M 1.078125 -8.015625 "/>
</symbol>
</g>
</defs>
<g id="surface38857">
<rect x="0" y="0" width="300" height="300" style="fill:rgb(100%,100%,100%);fill-opacity:1;stroke:none;"/>
<path style="fill:none;stroke-width:1.2;stroke-linecap:butt;stroke-linejoin:miter;stroke:rgb(0%,0%,0%);stroke-opacity:1;stroke-miterlimit:10;" d="M 253.859375 135.828125 L 243.835938 143.710938 "/>
<path style="fill:none;stroke-width:1.2;stroke-linecap:butt;stroke-linejoin:miter;stroke:rgb(100%,0%,0%);stroke-opacity:1;stroke-miterlimit:10;" d="M 243.835938 143.710938 L 233.8125 151.59375 "/>
<path style="fill:none;stroke-width:1.2;stroke-linecap:butt;stroke-linejoin:miter;stroke:rgb(100%,0%,0%);stroke-opacity:1;stroke-miterlimit:10;" d="M 233.8125 151.59375 L 235.628906 164.214844 "/>
<path style="fill:none;stroke-width:1.2;stroke-linecap:butt;stroke-linejoin:miter;stroke:rgb(0%,0%,0%);stroke-opacity:1;stroke-miterlimit:10;" d="M 235.628906 164.214844 L 237.441406 176.835938 "/>
<path style=" stroke:none;fill-rule:nonzero;fill:rgb(100%,100%,100%);fill-opacity:1;" d="M 229.8125 145.09375 L 238.8125 145.09375 L 238.8125 158.09375 L 229.8125 158.09375 Z M 229.8125 145.09375 "/>
<g style="fill:rgb(100%,0%,0%);fill-opacity:1;">
  <use xlink:href="#glyph0-1" x="229.8125" y="154.995117"/>
</g>
<path style="fill:none;stroke-width:1.2;stroke-linecap:butt;stroke-linejoin:miter;stroke:rgb(0%,0%,0%);stroke-opacity:1;stroke-miterlimit:10;" d="M 237.441406 176.835938 L 261.121094 186.3125 "/>
<path style="fill:none;stroke-width:1.2;stroke-linecap:butt;stroke-linejoin:miter;stroke:rgb(0%,0%,0%);stroke-opacity:1;stroke-miterlimit:10;" d="M 237.582031 183.355469 L 256.523438 190.9375 "/>
<path style="fill:none;stroke-width:1.2;stroke-linecap:butt;stroke-linejoin:miter;stroke:rgb(0%,0%,0%);stroke-opacity:1;stroke-miterlimit:10;" d="M 217.398438 192.601562 L 237.441406 176.835938 "/>
<path style="fill:none;stroke-width:1.2;stroke-linecap:butt;stroke-linejoin:miter;stroke:rgb(0%,0%,0%);stroke-opacity:1;stroke-miterlimit:10;" d="M 261.121094 186.3125 L 264.75 211.558594 "/>
<path style="fill:none;stroke-width:1.2;stroke-linecap:butt;stroke-linejoin:miter;stroke:rgb(0%,0%,0%);stroke-opacity:1;stroke-miterlimit:10;" d="M 264.75 211.558594 L 244.703125 227.324219 "/>
<path style="fill:none;stroke-width:1.2;stroke-linecap:butt;stroke-linejoin:miter;stroke:rgb(0%,0%,0%);stroke-opacity:1;stroke-miterlimit:10;" d="M 259.035156 208.417969 L 243 221.027344 "/>
<path style="fill:none;stroke-width:1.2;stroke-linecap:butt;stroke-linejoin:miter;stroke:rgb(0%,0%,0%);stroke-opacity:1;stroke-miterlimit:10;" d="M 244.703125 227.324219 L 221.027344 217.84375 "/>
<path style="fill:none;stroke-width:1.2;stroke-linecap:butt;stroke-linejoin:miter;stroke:rgb(0%,0%,0%);stroke-opacity:1;stroke-miterlimit:10;" d="M 221.027344 217.84375 L 217.398438 192.601562 "/>
<path style="fill:none;stroke-width:1.2;stroke-linecap:butt;stroke-linejoin:miter;stroke:rgb(0%,0%,0%);stroke-opacity:1;stroke-miterlimit:10;" d="M 226.605469 214.464844 L 223.699219 194.273438 "/>
<path style="fill:none;stroke-width:1.2;stroke-linecap:butt;stroke-linejoin:miter;stroke:rgb(0%,0%,0%);stroke-opacity:1;stroke-miterlimit:10;" d="M 217.398438 192.601562 L 193.722656 183.125 "/>
<path style="fill:none;stroke-width:1.2;stroke-linecap:butt;stroke-linejoin:miter;stroke:rgb(0%,0%,0%);stroke-opacity:1;stroke-miterlimit:10;" d="M 193.722656 183.125 L 190.089844 157.882812 "/>
<path style="fill:none;stroke-width:1.2;stroke-linecap:butt;stroke-linejoin:miter;stroke:rgb(0%,0%,0%);stroke-opacity:1;stroke-miterlimit:10;" d="M 190.089844 157.882812 L 178.253906 153.144531 "/>
<path style="fill:none;stroke-width:1.2;stroke-linecap:butt;stroke-linejoin:miter;stroke:rgb(0%,0%,100%);stroke-opacity:1;stroke-miterlimit:10;" d="M 178.253906 153.144531 L 166.414062 148.40625 "/>
<path style="fill:none;stroke-width:1.2;stroke-linecap:butt;stroke-linejoin:miter;stroke:rgb(0%,0%,100%);stroke-opacity:1;stroke-miterlimit:10;" d="M 166.414062 148.40625 L 164.597656 135.785156 "/>
<path style="fill:none;stroke-width:1.2;stroke-linecap:butt;stroke-linejoin:miter;stroke:rgb(0%,0%,0%);stroke-opacity:1;stroke-miterlimit:10;" d="M 164.597656 135.785156 L 162.785156 123.164062 "/>
<path style="fill:none;stroke-width:1.2;stroke-linecap:butt;stroke-linejoin:miter;stroke:rgb(0%,0%,0%);stroke-opacity:1;stroke-miterlimit:10;" d="M 146.371094 164.171875 L 156.390625 156.289062 "/>
<path style="fill:none;stroke-width:1.2;stroke-linecap:butt;stroke-linejoin:miter;stroke:rgb(0%,0%,100%);stroke-opacity:1;stroke-miterlimit:10;" d="M 156.390625 156.289062 L 166.414062 148.40625 "/>
<path style=" stroke:none;fill-rule:nonzero;fill:rgb(100%,100%,100%);fill-opacity:1;" d="M 162.414062 141.90625 L 170.414062 141.90625 L 170.414062 154.90625 L 162.414062 154.90625 Z M 162.414062 141.90625 "/>
<g style="fill:rgb(0%,0%,100%);fill-opacity:1;">
  <use xlink:href="#glyph0-2" x="162.414062" y="151.807617"/>
</g>
<path style="fill:none;stroke-width:1.2;stroke-linecap:butt;stroke-linejoin:miter;stroke:rgb(0%,0%,0%);stroke-opacity:1;stroke-miterlimit:10;" d="M 162.785156 123.164062 L 172.808594 115.28125 "/>
<path style="fill:none;stroke-width:1.2;stroke-linecap:butt;stroke-linejoin:miter;stroke:rgb(0%,0%,100%);stroke-opacity:1;stroke-miterlimit:10;" d="M 172.808594 115.28125 L 182.828125 107.398438 "/>
<path style="fill:none;stroke-width:1.2;stroke-linecap:butt;stroke-linejoin:miter;stroke:rgb(0%,0%,0%);stroke-opacity:1;stroke-miterlimit:10;" d="M 161.078125 116.871094 L 169.097656 110.5625 "/>
<path style="fill:none;stroke-width:1.2;stroke-linecap:butt;stroke-linejoin:miter;stroke:rgb(0%,0%,100%);stroke-opacity:1;stroke-miterlimit:10;" d="M 169.097656 110.5625 L 177.117188 104.257812 "/>
<path style="fill:none;stroke-width:1.2;stroke-linecap:butt;stroke-linejoin:miter;stroke:rgb(0%,0%,0%);stroke-opacity:1;stroke-miterlimit:10;" d="M 139.109375 113.6875 L 162.785156 123.164062 "/>
<path style="fill:none;stroke-width:1.2;stroke-linecap:butt;stroke-linejoin:miter;stroke:rgb(0%,0%,100%);stroke-opacity:1;stroke-miterlimit:10;" d="M 182.828125 107.398438 L 181.015625 94.777344 "/>
<path style="fill:none;stroke-width:1.2;stroke-linecap:butt;stroke-linejoin:miter;stroke:rgb(0%,0%,0%);stroke-opacity:1;stroke-miterlimit:10;" d="M 181.015625 94.777344 L 179.199219 82.15625 "/>
<path style=" stroke:none;fill-rule:nonzero;fill:rgb(100%,100%,100%);fill-opacity:1;" d="M 178.828125 100.898438 L 186.828125 100.898438 L 186.828125 113.898438 L 178.828125 113.898438 Z M 178.828125 100.898438 "/>
<g style="fill:rgb(0%,0%,100%);fill-opacity:1;">
  <use xlink:href="#glyph0-2" x="178.828125" y="110.799805"/>
</g>
<path style="fill:none;stroke-width:1.2;stroke-linecap:butt;stroke-linejoin:miter;stroke:rgb(0%,0%,0%);stroke-opacity:1;stroke-miterlimit:10;" d="M 179.199219 82.15625 L 167.359375 77.417969 "/>
<path style="fill:none;stroke-width:1.2;stroke-linecap:butt;stroke-linejoin:miter;stroke:rgb(0%,0%,100%);stroke-opacity:1;stroke-miterlimit:10;" d="M 167.359375 77.417969 L 155.523438 72.675781 "/>
<path style="fill:none;stroke-width:1.2;stroke-linecap:butt;stroke-linejoin:miter;stroke:rgb(0%,0%,0%);stroke-opacity:1;stroke-miterlimit:10;" d="M 174.601562 86.777344 L 165.132812 82.988281 "/>
<path style="fill:none;stroke-width:1.2;stroke-linecap:butt;stroke-linejoin:miter;stroke:rgb(0%,0%,100%);stroke-opacity:1;stroke-miterlimit:10;" d="M 165.132812 82.988281 L 155.660156 79.195312 "/>
<path style="fill:none;stroke-width:1.2;stroke-linecap:butt;stroke-linejoin:miter;stroke:rgb(0%,0%,100%);stroke-opacity:1;stroke-miterlimit:10;" d="M 155.523438 72.675781 L 145.5 80.558594 "/>
<path style="fill:none;stroke-width:1.2;stroke-linecap:butt;stroke-linejoin:miter;stroke:rgb(0%,0%,0%);stroke-opacity:1;stroke-miterlimit:10;" d="M 145.5 80.558594 L 135.476562 88.441406 "/>
<path style=" stroke:none;fill-rule:nonzero;fill:rgb(100%,100%,100%);fill-opacity:1;" d="M 151.523438 66.175781 L 159.523438 66.175781 L 159.523438 79.175781 L 151.523438 79.175781 Z M 151.523438 66.175781 "/>
<g style="fill:rgb(0%,0%,100%);fill-opacity:1;">
  <use xlink:href="#glyph0-2" x="151.523438" y="76.077148"/>
</g>
<path style="fill:none;stroke-width:1.2;stroke-linecap:butt;stroke-linejoin:miter;stroke:rgb(0%,0%,0%);stroke-opacity:1;stroke-miterlimit:10;" d="M 135.476562 88.441406 L 139.109375 113.6875 "/>
<path style="fill:none;stroke-width:1.2;stroke-linecap:butt;stroke-linejoin:miter;stroke:rgb(0%,0%,0%);stroke-opacity:1;stroke-miterlimit:10;" d="M 141.78125 90.113281 L 144.683594 110.308594 "/>
<path style="fill:none;stroke-width:1.2;stroke-linecap:butt;stroke-linejoin:miter;stroke:rgb(0%,0%,0%);stroke-opacity:1;stroke-miterlimit:10;" d="M 139.109375 113.6875 L 129.085938 121.570312 "/>
<path style="fill:none;stroke-width:1.2;stroke-linecap:butt;stroke-linejoin:miter;stroke:rgb(0%,0%,100%);stroke-opacity:1;stroke-miterlimit:10;" d="M 129.085938 121.570312 L 119.0625 129.453125 "/>
<path style="fill:none;stroke-width:1.2;stroke-linecap:butt;stroke-linejoin:miter;stroke:rgb(0%,0%,100%);stroke-opacity:1;stroke-miterlimit:10;" d="M 119.0625 129.453125 L 120.878906 142.074219 "/>
<path style="fill:none;stroke-width:1.2;stroke-linecap:butt;stroke-linejoin:miter;stroke:rgb(0%,0%,0%);stroke-opacity:1;stroke-miterlimit:10;" d="M 120.878906 142.074219 L 122.691406 154.695312 "/>
<path style="fill:none;stroke-width:1.2;stroke-linecap:butt;stroke-linejoin:miter;stroke:rgb(0%,0%,100%);stroke-opacity:1;stroke-miterlimit:10;" d="M 125.363281 131.121094 L 126.816406 141.21875 "/>
<path style="fill:none;stroke-width:1.2;stroke-linecap:butt;stroke-linejoin:miter;stroke:rgb(0%,0%,0%);stroke-opacity:1;stroke-miterlimit:10;" d="M 126.816406 141.21875 L 128.269531 151.316406 "/>
<path style=" stroke:none;fill-rule:nonzero;fill:rgb(100%,100%,100%);fill-opacity:1;" d="M 115.0625 122.953125 L 123.0625 122.953125 L 123.0625 135.953125 L 115.0625 135.953125 Z M 115.0625 122.953125 "/>
<g style="fill:rgb(0%,0%,100%);fill-opacity:1;">
  <use xlink:href="#glyph0-2" x="115.0625" y="132.854492"/>
</g>
<path style="fill:none;stroke-width:1.2;stroke-linecap:butt;stroke-linejoin:miter;stroke:rgb(0%,0%,0%);stroke-opacity:1;stroke-miterlimit:10;" d="M 122.691406 154.695312 L 146.371094 164.171875 "/>
<path style="fill:none;stroke-width:1.2;stroke-linecap:butt;stroke-linejoin:miter;stroke:rgb(0%,0%,0%);stroke-opacity:1;stroke-miterlimit:10;" d="M 122.691406 154.695312 L 102.648438 170.460938 "/>
<path style="fill:none;stroke-width:1.2;stroke-linecap:butt;stroke-linejoin:miter;stroke:rgb(0%,0%,0%);stroke-opacity:1;stroke-miterlimit:10;" d="M 143.398438 164.597656 L 145.214844 177.21875 "/>
<path style="fill:none;stroke-width:1.2;stroke-linecap:butt;stroke-linejoin:miter;stroke:rgb(100%,0%,0%);stroke-opacity:1;stroke-miterlimit:10;" d="M 145.214844 177.21875 L 147.03125 189.839844 "/>
<path style="fill:none;stroke-width:1.2;stroke-linecap:butt;stroke-linejoin:miter;stroke:rgb(0%,0%,0%);stroke-opacity:1;stroke-miterlimit:10;" d="M 149.339844 163.746094 L 151.15625 176.367188 "/>
<path style="fill:none;stroke-width:1.2;stroke-linecap:butt;stroke-linejoin:miter;stroke:rgb(100%,0%,0%);stroke-opacity:1;stroke-miterlimit:10;" d="M 151.15625 176.367188 L 152.96875 188.988281 "/>
<path style=" stroke:none;fill-rule:nonzero;fill:rgb(100%,100%,100%);fill-opacity:1;" d="M 146 182.914062 L 155 182.914062 L 155 195.914062 L 146 195.914062 Z M 146 182.914062 "/>
<g style="fill:rgb(100%,0%,0%);fill-opacity:1;">
  <use xlink:href="#glyph0-1" x="146" y="192.81543"/>
</g>
<path style="fill:none;stroke-width:1.2;stroke-linecap:butt;stroke-linejoin:miter;stroke:rgb(0%,0%,0%);stroke-opacity:1;stroke-miterlimit:10;" d="M 102.648438 170.460938 L 78.972656 160.984375 "/>
<path style="fill:none;stroke-width:1.2;stroke-linecap:butt;stroke-linejoin:miter;stroke:rgb(0%,0%,0%);stroke-opacity:1;stroke-miterlimit:10;" d="M 98.050781 175.082031 L 79.109375 167.5 "/>
<path style="fill:none;stroke-width:1.2;stroke-linecap:butt;stroke-linejoin:miter;stroke:rgb(0%,0%,0%);stroke-opacity:1;stroke-miterlimit:10;" d="M 106.277344 195.703125 L 102.648438 170.460938 "/>
<path style="fill:none;stroke-width:1.2;stroke-linecap:butt;stroke-linejoin:miter;stroke:rgb(0%,0%,0%);stroke-opacity:1;stroke-miterlimit:10;" d="M 78.972656 160.984375 L 58.925781 176.75 "/>
<path style="fill:none;stroke-width:1.2;stroke-linecap:butt;stroke-linejoin:miter;stroke:rgb(0%,0%,0%);stroke-opacity:1;stroke-miterlimit:10;" d="M 58.925781 176.75 L 62.558594 201.992188 "/>
<path style="fill:none;stroke-width:1.2;stroke-linecap:butt;stroke-linejoin:miter;stroke:rgb(0%,0%,0%);stroke-opacity:1;stroke-miterlimit:10;" d="M 65.230469 178.417969 L 68.132812 198.613281 "/>
<path style="fill:none;stroke-width:1.2;stroke-linecap:butt;stroke-linejoin:miter;stroke:rgb(0%,0%,0%);stroke-opacity:1;stroke-miterlimit:10;" d="M 58.925781 176.75 L 47.089844 172.011719 "/>
<path style="fill:none;stroke-width:1.2;stroke-linecap:butt;stroke-linejoin:miter;stroke:rgb(20%,80%,80%);stroke-opacity:1;stroke-miterlimit:10;" d="M 47.089844 172.011719 L 35.25 167.269531 "/>
<path style="fill:none;stroke-width:1.2;stroke-linecap:butt;stroke-linejoin:miter;stroke:rgb(0%,0%,0%);stroke-opacity:1;stroke-miterlimit:10;" d="M 62.558594 201.992188 L 86.234375 211.46875 "/>
<path style="fill:none;stroke-width:1.2;stroke-linecap:butt;stroke-linejoin:miter;stroke:rgb(0%,0%,0%);stroke-opacity:1;stroke-miterlimit:10;" d="M 62.558594 201.992188 L 52.535156 209.875 "/>
<path style="fill:none;stroke-width:1.2;stroke-linecap:butt;stroke-linejoin:miter;stroke:rgb(20%,80%,80%);stroke-opacity:1;stroke-miterlimit:10;" d="M 52.535156 209.875 L 42.511719 217.757812 "/>
<path style="fill:none;stroke-width:1.2;stroke-linecap:butt;stroke-linejoin:miter;stroke:rgb(0%,0%,0%);stroke-opacity:1;stroke-miterlimit:10;" d="M 86.234375 211.46875 L 106.277344 195.703125 "/>
<path style="fill:none;stroke-width:1.2;stroke-linecap:butt;stroke-linejoin:miter;stroke:rgb(0%,0%,0%);stroke-opacity:1;stroke-miterlimit:10;" d="M 84.527344 205.175781 L 100.5625 192.5625 "/>
<path style=" stroke:none;fill-rule:nonzero;fill:rgb(100%,100%,100%);fill-opacity:1;" d="M 35.511719 211.257812 L 42.511719 211.257812 L 42.511719 224.257812 L 35.511719 224.257812 Z M 35.511719 211.257812 "/>
<g style="fill:rgb(20%,80%,80%);fill-opacity:1;">
  <use xlink:href="#glyph0-3" x="35.511719" y="221.15918"/>
</g>
<path style=" stroke:none;fill-rule:nonzero;fill:rgb(100%,100%,100%);fill-opacity:1;" d="M 28.25 160.769531 L 35.25 160.769531 L 35.25 173.769531 L 28.25 173.769531 Z M 28.25 160.769531 "/>
<g style="fill:rgb(20%,80%,80%);fill-opacity:1;">
  <use xlink:href="#glyph0-3" x="28.25" y="170.670898"/>
</g>
</g>
</svg>

<svg xmlns="http://www.w3.org/2000/svg" xmlns:xlink="http://www.w3.org/1999/xlink" width="300pt" height="300pt" viewBox="0 0 300 300"><defs><symbol overflow="visible"><path d="M.547 1.938V-7.75h5.5v9.688zm.625-.61h4.266v-8.47H1.171zm0 0"/></symbol><symbol overflow="visible" id="a"><path d="M4.328-7.28c-.78 0-1.406.296-1.875.89-.46.585-.687 1.382-.687 2.39 0 1.012.226 1.813.687 2.406.47.586 1.094.875 1.875.875.79 0 1.414-.288 1.875-.874.457-.593.688-1.394.688-2.406 0-1.008-.23-1.805-.687-2.39-.46-.594-1.086-.89-1.875-.89zm0-.892c1.125 0 2.024.383 2.703 1.14C7.708-6.28 8.048-5.27 8.048-4c0 1.262-.34 2.273-1.016 3.03C6.353-.22 5.454.157 4.33.157S2.3-.22 1.625-.97c-.668-.75-1-1.757-1-3.03 0-1.27.332-2.28 1-3.03.676-.76 1.578-1.142 2.703-1.142zm0 0"/></symbol><symbol overflow="visible" id="b"><path d="M1.078-8.016h1.47l3.546 6.704v-6.704h1.062V0H5.688L2.124-6.703V0H1.078zm0 0"/></symbol><symbol overflow="visible" id="c"><path d="M1.078-8.016h4.61v.907H2.171v2.36h3.172v.922H2.172V0H1.078zm0 0"/></symbol></defs><g><path fill="#fff" d="M0 0h300v300H0z"/><path d="M253.86 135.828l-10.024 7.883" stroke-width="1.2" stroke="#000" stroke-miterlimit="10" fill="none"/><path d="M243.836 143.71l-10.024 7.884M233.813 151.594l1.816 12.62" stroke-width="1.2" stroke="#f00" stroke-miterlimit="10" fill="none"/><path d="M235.63 164.215l1.81 12.62" stroke-width="1.2" stroke="#000" stroke-miterlimit="10" fill="none"/><path d="M229.813 145.094h9v13h-9zm0 0" fill="#fff"/><use xlink:href="#a" x="229.813" y="154.995" fill="#f00"/><path d="M237.44 176.836l23.68 9.476M237.582 183.355l18.94 7.583M217.398 192.602l20.043-15.766M261.12 186.313l3.63 25.246M264.75 211.56l-20.047 15.764M259.035 208.418L243 221.028M244.703 227.324l-23.676-9.48M221.027 217.844l-3.63-25.242M226.605 214.465l-2.906-20.192M217.398 192.602l-23.675-9.477M193.723 183.125l-3.633-25.242M190.09 157.883l-11.836-4.738" stroke-width="1.2" stroke="#000" stroke-miterlimit="10" fill="none"/><path d="M178.254 153.145l-11.84-4.74M166.414 148.406l-1.816-12.62" stroke-width="1.2" stroke="#00f" stroke-miterlimit="10" fill="none"/><path d="M164.598 135.785l-1.813-12.62M146.37 164.172l10.02-7.883" stroke-width="1.2" stroke="#000" stroke-miterlimit="10" fill="none"/><path d="M156.39 156.29l10.024-7.884" stroke-width="1.2" stroke="#00f" stroke-miterlimit="10" fill="none"/><path d="M162.414 141.906h8v13h-8zm0 0" fill="#fff"/><use xlink:href="#b" x="162.414" y="151.808" fill="#00f"/><path d="M162.785 123.164l10.024-7.883" stroke-width="1.2" stroke="#000" stroke-miterlimit="10" fill="none"/><path d="M172.81 115.28l10.018-7.882" stroke-width="1.2" stroke="#00f" stroke-miterlimit="10" fill="none"/><path d="M161.078 116.87l8.02-6.308" stroke-width="1.2" stroke="#000" stroke-miterlimit="10" fill="none"/><path d="M169.098 110.563l8.02-6.305" stroke-width="1.2" stroke="#00f" stroke-miterlimit="10" fill="none"/><path d="M139.11 113.688l23.675 9.476" stroke-width="1.2" stroke="#000" stroke-miterlimit="10" fill="none"/><path d="M182.828 107.398l-1.812-12.62" stroke-width="1.2" stroke="#00f" stroke-miterlimit="10" fill="none"/><path d="M181.016 94.777l-1.817-12.62" stroke-width="1.2" stroke="#000" stroke-miterlimit="10" fill="none"/><path d="M178.828 100.898h8v13h-8zm0 0" fill="#fff"/><use xlink:href="#b" x="178.828" y="110.8" fill="#00f"/><path d="M179.2 82.156l-11.84-4.738" stroke-width="1.2" stroke="#000" stroke-miterlimit="10" fill="none"/><path d="M167.36 77.418l-11.837-4.742" stroke-width="1.2" stroke="#00f" stroke-miterlimit="10" fill="none"/><path d="M174.602 86.777l-9.47-3.79" stroke-width="1.2" stroke="#000" stroke-miterlimit="10" fill="none"/><path d="M165.133 82.988l-9.473-3.793M155.523 72.676L145.5 80.56" stroke-width="1.2" stroke="#00f" stroke-miterlimit="10" fill="none"/><path d="M145.5 80.56l-10.023 7.88" stroke-width="1.2" stroke="#000" stroke-miterlimit="10" fill="none"/><path d="M151.523 66.176h8v13h-8zm0 0" fill="#fff"/><use xlink:href="#b" x="151.523" y="76.077" fill="#00f"/><path d="M135.477 88.44l3.632 25.248M141.78 90.113l2.904 20.196M139.11 113.688l-10.024 7.882" stroke-width="1.2" stroke="#000" stroke-miterlimit="10" fill="none"/><path d="M129.086 121.57l-10.024 7.883M119.063 129.453l1.816 12.62" stroke-width="1.2" stroke="#00f" stroke-miterlimit="10" fill="none"/><path d="M120.88 142.074l1.81 12.62" stroke-width="1.2" stroke="#000" stroke-miterlimit="10" fill="none"/><path d="M125.363 131.12l1.453 10.1" stroke-width="1.2" stroke="#00f" stroke-miterlimit="10" fill="none"/><path d="M126.816 141.22l1.454 10.096" stroke-width="1.2" stroke="#000" stroke-miterlimit="10" fill="none"/><path d="M115.063 122.953h8v13h-8zm0 0" fill="#fff"/><use xlink:href="#b" x="115.063" y="132.854" fill="#00f"/><path d="M122.69 154.695l23.68 9.477M122.69 154.695L102.65 170.46M143.398 164.598l1.817 12.62" stroke-width="1.2" stroke="#000" stroke-miterlimit="10" fill="none"/><path d="M145.215 177.22l1.816 12.62" stroke-width="1.2" stroke="#f00" stroke-miterlimit="10" fill="none"/><path d="M149.34 163.746l1.816 12.62" stroke-width="1.2" stroke="#000" stroke-miterlimit="10" fill="none"/><path d="M151.156 176.367l1.813 12.62" stroke-width="1.2" stroke="#f00" stroke-miterlimit="10" fill="none"/><path d="M146 182.914h9v13h-9zm0 0" fill="#fff"/><use xlink:href="#a" x="146" y="192.815" fill="#f00"/><path d="M102.648 170.46l-23.675-9.476M98.05 175.082L79.11 167.5M106.277 195.703l-3.63-25.242M78.973 160.984L58.926 176.75M58.926 176.75l3.633 25.242M65.23 178.418l2.903 20.195M58.926 176.75l-11.836-4.738" stroke-width="1.2" stroke="#000" stroke-miterlimit="10" fill="none"/><path d="M47.09 172.012l-11.84-4.742" stroke-width="1.2" stroke="#3cc" stroke-miterlimit="10" fill="none"/><path d="M62.56 201.992l23.674 9.477M62.56 201.992l-10.025 7.883" stroke-width="1.2" stroke="#000" stroke-miterlimit="10" fill="none"/><path d="M52.535 209.875l-10.023 7.883" stroke-width="1.2" stroke="#3cc" stroke-miterlimit="10" fill="none"/><path d="M86.234 211.47l20.043-15.767M84.527 205.176l16.035-12.613" stroke-width="1.2" stroke="#000" stroke-miterlimit="10" fill="none"/><path d="M35.512 211.258h7v13h-7zm0 0" fill="#fff"/><use xlink:href="#c" x="35.512" y="221.159" fill="#3cc"/><path d="M28.25 160.77h7v13h-7zm0 0" fill="#fff"/><use xlink:href="#c" x="28.25" y="170.671" fill="#3cc"/></g></svg>
